X:385
T:Kissing is the best of a'
R:Reel
O:Scotland
B:Kerr's Third p10
S:Kerr's Third p10
Z:Transcription, chords:Mike Long
M:C|
L:1/8
K:G
c|\
"G"BGGc BGcG|"G"BGGB "C"gdec|"G"BGGc BGdG|"F"A=FFA c2 (BA):|\
"G"(B/c/d) (df) gdec|(B/c/d) df g2gd|
(B/c/d) (df) gdec|"F"A=FFA c2(BA)|\
"G"(B/c/d) (df) gdec|(B/c/d) df g2gd|"C"egdg "G"cgBg|"F"A=FFA c2(BA)|]
